X: 1
T: Croppies' March, The
M: 2/4
L: 1/8
R: polka
K: Dmaj
R: march
|: B |
A>B AF | AB d>e | fa ef | dB Bd |
A>B AF | AB d>e | fa ef | d2- d :|
| e |
fa a>f | gb bg | fa ef | dB Bd |
fa af | gb b>c' | d'c'- c'a | b2- b>c' |
d'b c'a | b>a fe | fa ef | dB Bd |
A>B AF | AB d>e | fa ef | d2- d ||
K:Gmaj
|: E |
D>E DB, | DE GA | Bd AB/A/ | GE EG/E/ |
D>E DB, | DE GA | Bd AB/A/ | G2 G :|
| A |
Bd dB | ce ec | Bd AB/A/ | GE ED |
B/c/d dB | c/d/e e>f | g/f/e fd | e2 ef |
ge fd | e/f/e/d/ BA | Bd/B/ AB/A/ | GE EG |
D>E DB, | DE GA | Bd AB/A/ | G2 G ||
K: Cmaj
|: A |
GG/A/ GE | GA c>d | eg de | c/B/c/d/ ed/c/ |
G>A GE | G>A cd | eg de/d/ | c2 c :|
| d |
eg gf/e/ | fa ag | eg dc/B/ | c/d/e/c/ Ac/d/ |
eg- ge | f/g/a ab | c'b ag | a2 a>b |
c'b ag | a2 c'/b/a | eg  de | cc/d/ e/d/c/A/ |
G>A GE | GG/A/ B/c/d | eg dB | c2- c ||
